X:1
T:E minor Daniel Belknap, 1802
T:Isaac Watts, 1719 (Psalm 9, Part 2)       86. 86. (C. M.)
T:Westborough
T:Transcribed from The Village Compilation, 1806.
%%score [ 1 2 3 ]
L:1/8
Q:1/4=120
M:4/4
K:G
V:1 treble nm="Voice"
V:2 treble-8 nm="Tenor"
V:3 bass nm="Bass"
V:1
 B4 B2 GF | E2 GA B2 B2 | B4 G4 | B2 B2 A2 d2 | d6 c2 | B2 d2 d2 BA | B2 B2 B2 G2 | A2 A2 B2 e2 | %8
w: 1.~A span is *|all that * we can|boast, How|short the flee- ting|time; Man|is but va- ni- *|ty and dust, Man|is but va- ni-|
w: 2.~Teach me the *|mea- sure * of my|days, Thou|Ma- ker of my|frame; I|would sur- vey life's *|nar- row space, I|would sur- vey life's|
 dc BA G2 B2 | (A2 d4) c2 | B6 B2 | B8 |] %12
w: ty * and * dust, In|all~ _ his|flower~ and|prime.|
w: nar- * row * space, And|learn~ _ how|frail~ I|am.|
V:2
 B4 B2 ^d2 | e2 BA Be ^d2 | e4 e4 | d2 de d2 B2 | A6 GA | B2 B2 B2 ^d2 | e2 e2 e2 B2 | %7
w: 3.~See the vain|race of * mor- * tals|move Like|sha- dows * o'er the|plain; They *|rage and strive, de-|sire and love, They|
w: 4.~Some walk in|ho- nor's * gau- * dy|show, Some|dig for * gol- den|ore; They *|toil for heirs, they|know not who, They|
 d2 d2 d2 e2 | fe dc B2 B2 | (c2 BA d2) e2 | (d>cBA G2) F2 | E8 |] %12
w: rage and strive, de-|sire * and * love, But|all~ _ _ _ the|noise~ _ _ _ _ is|vain.|
w: toil for heirs, they|know * not * who, And|straight~ _ _ _ are|seen~ _ _ _ _ no|more.|
V:3
 E,4 E,2 B,2 | A,2 G,E, B,,2 B,,2 | E,4 E,4 | B,,2 B,,C, D,2 G,2 | D,6 B,A, | G,2 G,2 G,2 G,F, | %6
w: 5.~What should I|wish or * wait for,|then, From|crea- tures * earth and|dust? They *|make our ex- pec- *|
w: 6.~Now I for-|bid my * car- nal|hope, My|fond de- * sires re-|call; I *|give my mor- tal *|
 E,2 E,2 E,2 G,2 | D,2 D,2 D,2 G,2 | F,2 F,2 G,2 E,2 | (A,2 G,F, G,2) E,2 | B,,6 B,,2 | E,8 |] %12
w: ta- tions vain, They|make our ex- pec-|ta- tions vain, And|dis- * * * ap-|point~ our|trust.|
w: in- terest up, I|give my mor- tal|in- terest up, And|make~ _ _ _ my|God~ my|all.|

